public/svg/user_badge.svg

<svg fill="none" height="80" viewBox="0 0 80 80" width="80" xmlns="http://www.w3.org/2000/svg"><circle cx="40" cy="40" fill="#5845af" r="39.5" stroke="#6b58c1"/><path d="m32 50c0-2.1217.8429-4.1566 2.3431-5.6569 1.5003-1.5002 3.5352-2.3431 5.6569-2.3431s4.1566.8429 5.6569 2.3431c1.5002 1.5003 2.3431 3.5352 2.3431 5.6569h-2c0-1.5913-.6321-3.1174-1.7574-4.2426-1.1252-1.1253-2.6513-1.7574-4.2426-1.7574s-3.1174.6321-4.2426 1.7574c-1.1253 1.1252-1.7574 2.6513-1.7574 4.2426zm8-9c-3.315 0-6-2.685-6-6s2.685-6 6-6 6 2.685 6 6-2.685 6-6 6zm0-2c2.21 0 4-1.79 4-4s-1.79-4-4-4-4 1.79-4 4 1.79 4 4 4z" fill="#b8afdd"/></svg>

<svg width="80" height="80" viewBox="0 0 80 80" fill="none" xmlns="http://www.w3.org/2000/svg">
<circle cx="40" cy="40" r="39.5" fill="#5845AF" stroke="#6B58C1"/>
<path d="M32 50C32 47.8783 32.8429 45.8434 34.3431 44.3431C35.8434 42.8429 37.8783 42 40 42C42.1217 42 44.1566 42.8429 45.6569 44.3431C47.1571 45.8434 48 47.8783 48 50H46C46 48.4087 45.3679 46.8826 44.2426 45.7574C43.1174 44.6321 41.5913 44 40 44C38.4087 44 36.8826 44.6321 35.7574 45.7574C34.6321 46.8826 34 48.4087 34 50H32ZM40 41C36.685 41 34 38.315 34 35C34 31.685 36.685 29 40 29C43.315 29 46 31.685 46 35C46 38.315 43.315 41 40 41ZM40 39C42.21 39 44 37.21 44 35C44 32.79 42.21 31 40 31C37.79 31 36 32.79 36 35C36 37.21 37.79 39 40 39Z" fill="#B8AFDD"/>
</svg>
